Origami/24x24/apps/resolve.svg

<svg width="24" height="24" version="1.1" viewBox="0 0 24 24" xmlns="http://www.w3.org/2000/svg">
 <path d="m11.79051 21.5h-0.563255c-0.02613-0.0095-0.05234-0.01187-0.07871-0.01187-0.300722-0.01425-0.59926-0.03848-0.895185-0.07871-0.5535625-0.071633-1.097865-0.193375-1.62768-0.362618-0.9092925-0.290985-1.75655-0.708557-2.5417725-1.252717-0.7281275-0.50597-1.372275-1.102428-1.93325-1.789468-0.6613425-0.80655-1.17667-1.696652-1.5419925-2.674724-0.327085-0.868538-0.5227375-1.767903-0.58254-2.696196 0-0.050112-0.0095-0.100224-0.026125-0.150337v-0.980685c0.016625-0.043225 0.02375-0.08835 0.026125-0.133617 0.011875-0.221968 0.035625-0.443935 0.0646-0.66329 0.1433075-1.059345 0.4581375-2.064113 0.9427325-3.016203 0.334115-0.65626 0.7399075-1.266825 1.217045-1.83027 0.472625-0.55822 1.0024875-1.0571125 1.589445-1.4936375 0.957125-0.71117 2.009725-1.2241225 3.159985-1.538905 0.55841-0.1525225 1.1290275-0.2527475 1.7063895-0.3006275 0.102506-0.0095 0.21014 0 0.312645-0.026125h0.964203c0.07391 0.021375 0.150385 0.0095 0.224248 0.016625 0.38209 0.03325 0.761519 0.081273 1.138385 0.155135 1.186264 0.2338425 2.286364 0.6777775 3.303292 1.33361 0.790115 0.5082025 1.486987 1.12138 2.09551 1.8347825 0.489392 0.5727075 0.904447 1.1955275 1.243455 1.8681275 0.400947 0.7947225 0.68723 1.627255 0.84987 2.50287 0.08579 0.46284 0.150385 0.930525 0.15257 1.403007 0 0.03135 0.0071 0.0646 0.0095 0.09538v0.56316c-0.0095 0.03562-0.0095 0.07386-0.01187 0.112052 0 0.09058 0 0.181545-0.0071 0.27208-0.04323 0.577553-0.133665 1.147695-0.276972 1.71076-0.274408 1.057113-0.716206 2.037797-1.329573 2.94196-0.455952 0.672932-0.988 1.27908-1.599135 1.815782-0.608522 0.534518-1.274615 0.98553-1.99785 1.350378-0.83315 0.419805-1.709003 0.71117-2.627938 0.87077-0.353115 0.06199-0.708795 0.102457-1.066707 0.123975-0.09429 0.01093-0.19456 0.0085-0.292552 0.02945z" style="opacity:.2"/>
 <path d="m11.79051 21h-0.563255c-0.02613-0.0095-0.05234-0.01187-0.07871-0.01187-0.300722-0.01425-0.59926-0.03848-0.895185-0.07871-0.5535625-0.071633-1.097865-0.193375-1.62768-0.362618-0.9092925-0.290985-1.75655-0.708557-2.5417725-1.252717-0.7281275-0.50597-1.372275-1.102428-1.93325-1.789468-0.6613425-0.80655-1.17667-1.696652-1.5419925-2.674724-0.327085-0.868538-0.5227375-1.767903-0.58254-2.696196 0-0.050112-0.0095-0.100224-0.026125-0.150337v-0.980685c0.016625-0.043225 0.02375-0.08835 0.026125-0.133617 0.011875-0.221968 0.035625-0.443935 0.0646-0.66329 0.1433075-1.059345 0.4581375-2.064113 0.9427325-3.016203 0.334115-0.65626 0.7399075-1.266825 1.217045-1.83027 0.472625-0.55822 1.0024875-1.0571125 1.589445-1.4936375 0.957125-0.71117 2.009725-1.2241225 3.159985-1.538905 0.55841-0.1525225 1.1290275-0.2527475 1.7063895-0.3006275 0.102506-0.0095 0.21014 0 0.312645-0.026125h0.964203c0.07391 0.021375 0.150385 0.0095 0.224248 0.016625 0.38209 0.03325 0.761519 0.081273 1.138385 0.155135 1.186264 0.2338425 2.286364 0.6777775 3.303292 1.33361 0.790115 0.5082025 1.486987 1.12138 2.09551 1.8347825 0.489392 0.5727075 0.904447 1.1955275 1.243455 1.8681275 0.400947 0.7947225 0.68723 1.627255 0.84987 2.50287 0.08579 0.46284 0.150385 0.930525 0.15257 1.403007 0 0.03135 0.0071 0.0646 0.0095 0.09538v0.56316c-0.0095 0.03562-0.0095 0.07386-0.01187 0.112052 0 0.09058 0 0.181545-0.0071 0.27208-0.04323 0.577553-0.133665 1.147695-0.276972 1.71076-0.274408 1.057113-0.716206 2.037797-1.329573 2.94196-0.455952 0.672932-0.988 1.27908-1.599135 1.815782-0.608522 0.534518-1.274615 0.98553-1.99785 1.350378-0.83315 0.419805-1.709003 0.71117-2.627938 0.87077-0.353115 0.06199-0.708795 0.102457-1.066707 0.123975-0.09429 0.01093-0.19456 0.0085-0.292552 0.02945z" style="fill:#4f4f4f"/>
 <path d="m7.6644343 16.499309c0.1631829 0.0047 0.3464064-0.0145 0.5295809-0.05156 0.5419398-0.112984 1.0022394-0.347655 1.3559833-0.76371 0.2151298-0.253712 0.3959903-0.528664 0.5518865-0.817838 0.183271-0.340733 0.33641-0.695733 0.46995-1.055085 0.163182-0.434673 0.301744-0.878846 0.408399-1.32779 0.05925-0.251513-0.0074-0.409082-0.299431-0.495728-0.371026-0.110409-0.7448101-0.209124-1.1258313-0.289173-0.6308197-0.131651-1.2666615-0.216097-1.9152069-0.195278-0.1832235 7e-3 -0.3660529 0.02573-0.5469129 0.05628-0.5246072 0.08707-0.9698887 0.317387-1.3335781 0.681509-0.6212169 0.62041-0.8683052 1.36068-0.7151183 2.204485 0.220154 1.205729 1.3436226 2.063383 2.6202788 2.053885z" style="opacity:.2"/>
 <path d="m7.6644343 15.999309c0.1631829 0.0047 0.3464064-0.0145 0.5295809-0.05156 0.5419398-0.112984 1.0022394-0.347655 1.3559833-0.76371 0.2151298-0.253712 0.3959903-0.528664 0.5518865-0.817838 0.183271-0.340733 0.33641-0.695733 0.46995-1.055085 0.163182-0.434673 0.301744-0.878846 0.408399-1.32779 0.05925-0.251513-0.0074-0.409082-0.299431-0.495728-0.371026-0.110409-0.7448101-0.209124-1.1258313-0.289173-0.6308197-0.131651-1.2666615-0.216097-1.9152069-0.195278-0.1832235 7e-3 -0.3660529 0.02573-0.5469129 0.05628-0.5246072 0.08707-0.9698887 0.317387-1.3335781 0.681509-0.6212169 0.62041-0.8683052 1.36068-0.7151183 2.204485 0.220154 1.205729 1.3436226 2.063383 2.6202788 2.053885z" style="fill:#e9ff61"/>
 <path d="m9.0009396 7.9606963c-0.00699 0.1714947 0.025645 0.3589687 0.079776 0.546488 0.1031355 0.3567832 0.2740645 0.6837017 0.4756272 0.9925017 0.4591672 0.702231 1.0379282 1.30344 1.6658812 1.861628 0.05143 0.04588 0.112647 0.08463 0.178203 0.114178 0.06565 0.03188 0.131205 0.03188 0.199043 0.0045 0.06556-0.02732 0.124211-0.0662 0.173448-0.116682 0.217928-0.210282 0.433337-0.420884 0.639608-0.638222 0.290477-0.308799 0.567107-0.626476 0.817811-0.96728 0.22744-0.308665 0.431147-0.63349 0.580954-0.9856745 0.149809-0.3500457 0.222637-0.7111084 0.173447-1.0907452-0.08201-0.6264764-0.356031-1.1572582-0.845833-1.5734521-0.579134-0.4913306-1.253712-0.6880464-2.012868-0.5784665-1.2347357 0.1785963-2.1298529 1.23975-2.1250974 2.4311523z" style="opacity:.2"/>
 <path d="m9.0009396 7.4606963c-0.00699 0.1714947 0.025645 0.3589687 0.079776 0.546488 0.1031355 0.3567832 0.2740645 0.6837014 0.4756272 0.9925014 0.4591672 0.7022313 1.0379282 1.3034403 1.6658812 1.8616283 0.05143 0.04588 0.112647 0.08463 0.178203 0.114178 0.06565 0.03188 0.131205 0.03188 0.199043 0.0045 0.06556-0.02732 0.124211-0.0662 0.173448-0.116682 0.217928-0.210282 0.433337-0.420884 0.639608-0.638222 0.290477-0.308799 0.567107-0.626476 0.817811-0.96728 0.22744-0.3086654 0.431147-0.6334897 0.580954-0.9856745 0.149809-0.3500457 0.222637-0.7111084 0.173447-1.0907452-0.08201-0.6264764-0.356031-1.1572582-0.845833-1.5734521-0.579134-0.4913306-1.253712-0.6880464-2.012868-0.5784665-1.2347357 0.1785963-2.1298529 1.23975-2.1250974 2.4311523z" style="fill:#10b7d6"/>
 <path d="m15.335569 16.499309c-0.163184 0.0047-0.346407-0.0145-0.529581-0.05156-0.541942-0.112984-1.002242-0.347655-1.355985-0.76371-0.215132-0.253712-0.395992-0.528664-0.551887-0.817838-0.183273-0.340733-0.336412-0.695733-0.469952-1.055085-0.163183-0.434673-0.301746-0.878846-0.408401-1.32779-0.05925-0.251513 0.0075-0.409082 0.299432-0.495728 0.371027-0.110411 0.744812-0.209126 1.125834-0.289175 0.63082-0.131651 1.266664-0.216097 1.915209-0.195278 0.183223 7e-3 0.366054 0.02573 0.546915 0.05628 0.524607 0.08707 0.969889 0.317387 1.33358 0.681509 0.621218 0.62041 0.868307 1.36068 0.71512 2.204485-0.220155 1.205729-1.343626 2.063383-2.620284 2.053885z" style="opacity:.2"/>
 <path d="m15.335569 15.999309c-0.163184 0.0047-0.346407-0.0145-0.529581-0.05156-0.541942-0.112984-1.002242-0.347655-1.355985-0.76371-0.215132-0.253712-0.395992-0.528664-0.551887-0.817838-0.183273-0.340733-0.336412-0.695733-0.469952-1.055085-0.163183-0.434673-0.301746-0.878846-0.408401-1.32779-0.05925-0.251513 0.0075-0.409082 0.299432-0.495728 0.371027-0.110411 0.744812-0.209126 1.125834-0.289175 0.63082-0.131651 1.266664-0.216097 1.915209-0.195278 0.183223 7e-3 0.366054 0.02573 0.546915 0.05628 0.524607 0.08707 0.969889 0.317387 1.33358 0.681509 0.621218 0.62041 0.868307 1.36068 0.71512 2.204485-0.220155 1.205729-1.343626 2.063383-2.620284 2.053885z" style="fill:#ff5e5e"/>
 <path d="m11.019531 2c-0.102505 0.026125-0.209994 0.015891-0.3125 0.025391-0.577362 0.0478796-1.148621 0.1482584-1.707031 0.3007809-1.15026 0.3147825-2.2030313 0.8278925-3.1601562 1.5390625-0.5869575 0.436525-1.1172188 0.9359206-1.5898438 1.4941406-0.4771375 0.563445-0.8826819 1.1738181-1.2167969 1.8300781-0.484595 0.95209-0.8000518 1.9562799-0.9433593 3.0156249-0.0289751 0.219355-0.0525782 0.442095-0.0644532 0.664063-0.002375 0.045267-0.0087656 0.089587-0.0253906 0.132812v0.5c0.016625-0.04322 0.023016-0.08755 0.025391-0.132812 0.011875-0.221968 0.035478-0.444708 0.064453-0.664063 0.1433073-1.059345 0.4587641-2.0635349 0.9433591-3.0156249 0.334115-0.65626 0.7396594-1.2666331 1.2167969-1.8300781 0.472625-0.55822 1.0028863-1.0576156 1.5898438-1.4941406 0.9571249-0.71117 2.0098962-1.22428 3.1601562-1.5390625 0.55841-0.1525225 1.129669-0.2529013 1.707031-0.3007813 0.102506-0.0095 0.209995 7.344e-4 0.3125-0.0253906h0.962891c0.07391 0.021375 0.150746 0.010453 0.224609 0.017578 0.38209 0.03325 0.761806 0.080435 1.138672 0.1542969 1.186264 0.2338425 2.285807 0.6781519 3.302735 1.3339844 0.790115 0.5082025 1.48718 1.1205819 2.095703 1.8339844 0.489392 0.5727074 0.905132 1.1965406 1.24414 1.8691406 0.400947 0.7947225 0.68697 1.6263386 0.84961 2.5019536 0.08579 0.462839 0.150158 0.929861 0.152343 1.402343 0 0.03135 0.0074 0.06492 0.0098 0.0957v-0.5c-0.0024-0.03078-0.0098-0.06435-0.0098-0.0957-0.0022-0.472482-0.06655-0.939504-0.152343-1.402343-0.16264-0.8756154-0.448663-1.707231-0.84961-2.5019535-0.339008-0.6726-0.754748-1.2964332-1.24414-1.8691406-0.608523-0.7134025-1.305588-1.3257819-2.095703-1.8339844-1.016928-0.6558325-2.116471-1.1001419-3.302735-1.3339844-0.376866-0.073862-0.756582-0.1210469-1.138672-0.1542969-0.073863-0.007125-0.150699 0.0037969-0.224609-0.0175781h-0.962891z" style="fill:#ffffff;opacity:.1"/>
 <path d="m7.640625 11.003906c-0.1832235 7e-3 -0.366015 0.02414-0.546875 0.05469-0.5246072 0.08707-0.970295 0.317518-1.3339844 0.68164-0.5594038 0.558678-0.796915 1.219794-0.7304687 1.960938 0.062557-0.53942 0.30011-1.031138 0.7304687-1.460938 0.3636894-0.364122 0.8093772-0.59457 1.3339844-0.68164 0.18086-0.03055 0.3636515-0.04769 0.546875-0.05469 0.6485454-0.02082 1.2832428 0.06366 1.9140625 0.195313 0.3810212 0.08005 0.7559275 0.178653 1.1269535 0.289062 0.123702 0.0367 0.199617 0.08844 0.25 0.152344 0.0136-0.05335 0.03612-0.104707 0.04883-0.158203 0.05925-0.251513-0.0068-0.407495-0.298828-0.494141-0.371028-0.110409-0.7459343-0.209013-1.1269555-0.289062-0.6308197-0.131651-1.2655171-0.216132-1.9140625-0.195313z" style="fill:#ffffff;opacity:.1"/>
 <path d="m11.679688 5.0039062c-0.179047-0.010709-0.362946-2e-3 -0.552735 0.025391-1.2347356 0.178596-2.1317085 1.240238-2.126953 2.4316403-0.0024977 0.0612795 0.0225029 0.1306795 0.0292969 0.1953125 0.1343049-1.0623323 0.9699589-1.9638392 2.0976561-2.1269531 0.759156-0.1095799 1.432585 0.086794 2.011719 0.578125 0.477607 0.4058321 0.746632 0.9230753 0.835937 1.5292969 0.01759-0.1494951 0.02987-0.299892 0.0098-0.4550782-0.082044-0.6264764-0.355935-1.1580248-0.845737-1.5742187-0.434351-0.368498-0.921844-0.5713872-1.458984-0.6035157z" style="fill:#ffffff;opacity:.1"/>
 <path d="m15.359375 11.003906c-0.648545-0.02082-1.283243 0.06366-1.914063 0.195313-0.381021 0.08005-0.755926 0.178651-1.126953 0.289062-0.291932 0.08665-0.358078 0.242628-0.298828 0.494141 0.01271 0.0535 0.03522 0.10485 0.04883 0.158203 0.05039-0.0639 0.12634-0.115641 0.25-0.152344 0.371027-0.110411 0.745932-0.209013 1.126953-0.289062 0.63082-0.131651 1.265518-0.216132 1.914063-0.195313 0.183223 7e-3 0.366014 0.02414 0.546875 0.05469 0.524607 0.08707 0.970293 0.317518 1.333984 0.68164 0.43036 0.4298 0.667912 0.921518 0.730469 1.460938 0.06645-0.741144-0.171064-1.40226-0.730469-1.960938-0.363691-0.364122-0.809377-0.59457-1.333984-0.68164-0.180861-0.03055-0.363652-0.04769-0.546875-0.05469z" style="fill:#ffffff;opacity:.1"/>
</svg>

<svg xmlns="http://www.w3.org/2000/svg" width="24" height="24" version="1.1" viewBox="0 0 24 24">
 <path style="opacity:0.2" d="m 11.79051,21.5 -0.563255,0 c -0.02613,-0.0095 -0.05234,-0.01187 -0.07871,-0.01187 C 10.847823,21.47388 10.549285,21.44965 10.25336,21.40942 9.6997975,21.337787 9.155495,21.216045 8.62568,21.046802 7.7163875,20.755817 6.86913,20.338245 6.0839075,19.794085 5.35578,19.288115 4.7116325,18.691657 4.1506575,18.004617 3.489315,17.198067 2.9739875,16.307965 2.608665,15.329893 2.28158,14.461355 2.0859275,13.56199 2.026125,12.633697 2.026125,12.583585 2.016625,12.533473 2,12.48336 L 2,11.502675 C 2.016625,11.45945 2.02375,11.414325 2.026125,11.369058 2.038,11.14709 2.06175,10.925123 2.090725,10.705768 2.2340325,9.646423 2.5488625,8.641655 3.0334575,7.689565 3.3675725,7.033305 3.773365,6.42274 4.2505025,5.859295 4.7231275,5.301075 5.25299,4.8021825 5.8399475,4.3656575 6.7970725,3.6544875 7.8496725,3.141535 8.9999325,2.8267525 9.5583425,2.67423 10.12896,2.574005 10.706322,2.526125 c 0.102506,-0.0095 0.21014,0 0.312645,-0.026125 l 0.964203,0 c 0.07391,0.021375 0.150385,0.0095 0.224248,0.016625 0.38209,0.03325 0.761519,0.081273 1.138385,0.155135 1.186264,0.2338425 2.286364,0.6777775 3.303292,1.33361 0.790115,0.5082025 1.486987,1.12138 2.09551,1.8347825 0.489392,0.5727075 0.904447,1.1955275 1.243455,1.8681275 0.400947,0.7947225 0.68723,1.627255 0.84987,2.50287 0.08579,0.46284 0.150385,0.930525 0.15257,1.403007 0,0.03135 0.0071,0.0646 0.0095,0.09538 l 0,0.56316 c -0.0095,0.03562 -0.0095,0.07386 -0.01187,0.112052 0,0.09058 0,0.181545 -0.0071,0.27208 -0.04323,0.577553 -0.133665,1.147695 -0.276972,1.71076 -0.274408,1.057113 -0.716206,2.037797 -1.329573,2.94196 -0.455952,0.672932 -0.988,1.27908 -1.599135,1.815782 -0.608522,0.534518 -1.274615,0.98553 -1.99785,1.350378 -0.83315,0.419805 -1.709003,0.71117 -2.627938,0.87077 -0.353115,0.06199 -0.708795,0.102457 -1.066707,0.123975 -0.09429,0.01093 -0.19456,0.0085 -0.292552,0.02945 z"/>
 <path style="fill:#4f4f4f" d="m 11.79051,21 -0.563255,0 c -0.02613,-0.0095 -0.05234,-0.01187 -0.07871,-0.01187 C 10.847823,20.97388 10.549285,20.94965 10.25336,20.90942 9.6997975,20.837787 9.155495,20.716045 8.62568,20.546802 7.7163875,20.255817 6.86913,19.838245 6.0839075,19.294085 5.35578,18.788115 4.7116325,18.191657 4.1506575,17.504617 3.489315,16.698067 2.9739875,15.807965 2.608665,14.829893 2.28158,13.961355 2.0859275,13.06199 2.026125,12.133697 2.026125,12.083585 2.016625,12.033473 2,11.98336 L 2,11.002675 C 2.016625,10.95945 2.02375,10.914325 2.026125,10.869058 2.038,10.64709 2.06175,10.425123 2.090725,10.205768 2.2340325,9.146423 2.5488625,8.141655 3.0334575,7.189565 3.3675725,6.533305 3.773365,5.92274 4.2505025,5.359295 4.7231275,4.801075 5.25299,4.3021825 5.8399475,3.8656575 6.7970725,3.1544875 7.8496725,2.641535 8.9999325,2.3267525 9.5583425,2.17423 10.12896,2.074005 10.706322,2.026125 c 0.102506,-0.0095 0.21014,0 0.312645,-0.026125 l 0.964203,0 c 0.07391,0.021375 0.150385,0.0095 0.224248,0.016625 0.38209,0.03325 0.761519,0.081273 1.138385,0.155135 1.186264,0.2338425 2.286364,0.6777775 3.303292,1.33361 0.790115,0.5082025 1.486987,1.12138 2.09551,1.8347825 0.489392,0.5727075 0.904447,1.1955275 1.243455,1.8681275 0.400947,0.7947225 0.68723,1.627255 0.84987,2.50287 0.08579,0.46284 0.150385,0.930525 0.15257,1.403007 0,0.03135 0.0071,0.0646 0.0095,0.09538 l 0,0.56316 c -0.0095,0.03562 -0.0095,0.07386 -0.01187,0.112052 0,0.09058 0,0.181545 -0.0071,0.27208 -0.04323,0.577553 -0.133665,1.147695 -0.276972,1.71076 -0.274408,1.057113 -0.716206,2.037797 -1.329573,2.94196 -0.455952,0.672932 -0.988,1.27908 -1.599135,1.815782 -0.608522,0.534518 -1.274615,0.98553 -1.99785,1.350378 -0.83315,0.419805 -1.709003,0.71117 -2.627938,0.87077 -0.353115,0.06199 -0.708795,0.102457 -1.066707,0.123975 -0.09429,0.01093 -0.19456,0.0085 -0.292552,0.02945 z"/>
 <path style="opacity:0.2" d="m 7.6644343,16.499309 c 0.1631829,0.0047 0.3464064,-0.0145 0.5295809,-0.05156 0.5419398,-0.112984 1.0022394,-0.347655 1.3559833,-0.76371 0.2151298,-0.253712 0.3959903,-0.528664 0.5518865,-0.817838 0.183271,-0.340733 0.33641,-0.695733 0.46995,-1.055085 0.163182,-0.434673 0.301744,-0.878846 0.408399,-1.32779 0.05925,-0.251513 -0.0074,-0.409082 -0.299431,-0.495728 C 10.309777,11.877189 9.9359929,11.778474 9.5549717,11.698425 8.924152,11.566774 8.2883102,11.482328 7.6397648,11.503147 c -0.1832235,0.007 -0.3660529,0.02573 -0.5469129,0.05628 -0.5246072,0.08707 -0.9698887,0.317387 -1.3335781,0.681509 -0.6212169,0.62041 -0.8683052,1.36068 -0.7151183,2.204485 0.220154,1.205729 1.3436226,2.063383 2.6202788,2.053885 z"/>
 <path style="fill:#e9ff61" d="m 7.6644343,15.999309 c 0.1631829,0.0047 0.3464064,-0.0145 0.5295809,-0.05156 0.5419398,-0.112984 1.0022394,-0.347655 1.3559833,-0.76371 0.2151298,-0.253712 0.3959903,-0.528664 0.5518865,-0.817838 0.183271,-0.340733 0.33641,-0.695733 0.46995,-1.055085 0.163182,-0.434673 0.301744,-0.878846 0.408399,-1.32779 0.05925,-0.251513 -0.0074,-0.409082 -0.299431,-0.495728 C 10.309777,11.377189 9.9359929,11.278474 9.5549717,11.198425 8.924152,11.066774 8.2883102,10.982328 7.6397648,11.003147 c -0.1832235,0.007 -0.3660529,0.02573 -0.5469129,0.05628 -0.5246072,0.08707 -0.9698887,0.317387 -1.3335781,0.681509 -0.6212169,0.62041 -0.8683052,1.36068 -0.7151183,2.204485 0.220154,1.205729 1.3436226,2.063383 2.6202788,2.053885 z"/>
 <path style="opacity:0.2" d="m 9.0009396,7.9606963 c -0.00699,0.1714947 0.025645,0.3589687 0.079776,0.546488 0.1031355,0.3567832 0.2740645,0.6837017 0.4756272,0.9925017 0.4591672,0.702231 1.0379282,1.30344 1.6658812,1.861628 0.05143,0.04588 0.112647,0.08463 0.178203,0.114178 0.06565,0.03188 0.131205,0.03188 0.199043,0.0045 0.06556,-0.02732 0.124211,-0.0662 0.173448,-0.116682 0.217928,-0.210282 0.433337,-0.420884 0.639608,-0.638222 0.290477,-0.308799 0.567107,-0.626476 0.817811,-0.96728 0.22744,-0.308665 0.431147,-0.63349 0.580954,-0.9856745 C 13.9611,8.4220878 14.033928,8.0610251 13.984738,7.6813883 13.902728,7.0549119 13.628707,6.5241301 13.138905,6.1079362 12.559771,5.6166056 11.885193,5.4198898 11.126037,5.5294697 9.8913013,5.708066 8.9961841,6.7692197 9.0009396,7.960622 Z"/>
 <path style="fill:#10b7d6" d="m 9.0009396,7.4606963 c -0.00699,0.1714947 0.025645,0.3589687 0.079776,0.546488 0.1031355,0.3567832 0.2740645,0.6837014 0.4756272,0.9925014 0.4591672,0.7022313 1.0379282,1.3034403 1.6658812,1.8616283 0.05143,0.04588 0.112647,0.08463 0.178203,0.114178 0.06565,0.03188 0.131205,0.03188 0.199043,0.0045 0.06556,-0.02732 0.124211,-0.0662 0.173448,-0.116682 0.217928,-0.210282 0.433337,-0.420884 0.639608,-0.638222 0.290477,-0.308799 0.567107,-0.626476 0.817811,-0.96728 0.22744,-0.3086654 0.431147,-0.6334897 0.580954,-0.9856745 C 13.9611,7.9220878 14.033928,7.5610251 13.984738,7.1813883 13.902728,6.5549119 13.628707,6.0241301 13.138905,5.6079362 12.559771,5.1166056 11.885193,4.9198898 11.126037,5.0294697 9.8913013,5.208066 8.9961841,6.2692197 9.0009396,7.460622 Z"/>
 <path style="opacity:0.2" d="m 15.335569,16.499309 c -0.163184,0.0047 -0.346407,-0.0145 -0.529581,-0.05156 -0.541942,-0.112984 -1.002242,-0.347655 -1.355985,-0.76371 -0.215132,-0.253712 -0.395992,-0.528664 -0.551887,-0.817838 -0.183273,-0.340733 -0.336412,-0.695733 -0.469952,-1.055085 -0.163183,-0.434673 -0.301746,-0.878846 -0.408401,-1.32779 -0.05925,-0.251513 0.0075,-0.409082 0.299432,-0.495728 0.371027,-0.110411 0.744812,-0.209126 1.125834,-0.289175 0.63082,-0.131651 1.266664,-0.216097 1.915209,-0.195278 0.183223,0.007 0.366054,0.02573 0.546915,0.05628 0.524607,0.08707 0.969889,0.317387 1.33358,0.681509 0.621218,0.62041 0.868307,1.36068 0.71512,2.204485 -0.220155,1.205729 -1.343626,2.063383 -2.620284,2.053885 z"/>
 <path style="fill:#ff5e5e" d="m 15.335569,15.999309 c -0.163184,0.0047 -0.346407,-0.0145 -0.529581,-0.05156 -0.541942,-0.112984 -1.002242,-0.347655 -1.355985,-0.76371 -0.215132,-0.253712 -0.395992,-0.528664 -0.551887,-0.817838 -0.183273,-0.340733 -0.336412,-0.695733 -0.469952,-1.055085 -0.163183,-0.434673 -0.301746,-0.878846 -0.408401,-1.32779 -0.05925,-0.251513 0.0075,-0.409082 0.299432,-0.495728 0.371027,-0.110411 0.744812,-0.209126 1.125834,-0.289175 0.63082,-0.131651 1.266664,-0.216097 1.915209,-0.195278 0.183223,0.007 0.366054,0.02573 0.546915,0.05628 0.524607,0.08707 0.969889,0.317387 1.33358,0.681509 0.621218,0.62041 0.868307,1.36068 0.71512,2.204485 -0.220155,1.205729 -1.343626,2.063383 -2.620284,2.053885 z"/>
 <path style="opacity:0.1;fill:#ffffff" d="m 11.019531,2 c -0.102505,0.026125 -0.209994,0.015891 -0.3125,0.025391 C 10.129669,2.0732706 9.55841,2.1736494 9,2.3261719 7.84974,2.6409544 6.7969687,3.1540644 5.8398438,3.8652344 5.2528863,4.3017594 4.722625,4.801155 4.25,5.359375 3.7728625,5.92282 3.3673181,6.5331931 3.0332031,7.1894531 2.5486081,8.1415431 2.2331513,9.145733 2.0898438,10.205078 2.0608687,10.424433 2.0372656,10.647173 2.0253906,10.869141 2.0230156,10.914408 2.016625,10.958728 2,11.001953 l 0,0.5 c 0.016625,-0.04322 0.023016,-0.08755 0.025391,-0.132812 0.011875,-0.221968 0.035478,-0.444708 0.064453,-0.664063 C 2.2331513,9.645733 2.5486081,8.6415431 3.0332031,7.6894531 3.3673181,7.0331931 3.7728625,6.42282 4.25,5.859375 4.722625,5.301155 5.2528863,4.8017594 5.8398438,4.3652344 6.7969687,3.6540644 7.84974,3.1409544 9,2.8261719 9.55841,2.6736494 10.129669,2.5732706 10.707031,2.5253906 10.809537,2.5158906 10.917026,2.526125 11.019531,2.5 l 0.962891,0 c 0.07391,0.021375 0.150746,0.010453 0.224609,0.017578 0.38209,0.03325 0.761806,0.080435 1.138672,0.1542969 1.186264,0.2338425 2.285807,0.6781519 3.302735,1.3339844 0.790115,0.5082025 1.48718,1.1205819 2.095703,1.8339844 0.489392,0.5727074 0.905132,1.1965406 1.24414,1.8691406 0.400947,0.7947225 0.68697,1.6263386 0.84961,2.5019536 0.08579,0.462839 0.150158,0.929861 0.152343,1.402343 0,0.03135 0.0074,0.06492 0.0098,0.0957 l 0,-0.5 c -0.0024,-0.03078 -0.0098,-0.06435 -0.0098,-0.0957 -0.0022,-0.472482 -0.06655,-0.939504 -0.152343,-1.402343 C 20.675251,8.8353225 20.389228,8.0037069 19.988281,7.2089844 19.649273,6.5363844 19.233533,5.9125512 18.744141,5.3398438 18.135618,4.6264413 17.438553,4.0140619 16.648438,3.5058594 15.63151,2.8500269 14.531967,2.4057175 13.345703,2.171875 12.968837,2.098013 12.589121,2.0508281 12.207031,2.0175781 12.133168,2.0104531 12.056332,2.021375 11.982422,2 l -0.962891,0 z"/>
 <path style="opacity:0.1;fill:#ffffff" d="m 7.640625,11.003906 c -0.1832235,0.007 -0.366015,0.02414 -0.546875,0.05469 -0.5246072,0.08707 -0.970295,0.317518 -1.3339844,0.68164 -0.5594038,0.558678 -0.796915,1.219794 -0.7304687,1.960938 0.062557,-0.53942 0.30011,-1.031138 0.7304687,-1.460938 0.3636894,-0.364122 0.8093772,-0.59457 1.3339844,-0.68164 0.18086,-0.03055 0.3636515,-0.04769 0.546875,-0.05469 0.6485454,-0.02082 1.2832428,0.06366 1.9140625,0.195313 0.3810212,0.08005 0.7559275,0.178653 1.1269535,0.289062 0.123702,0.0367 0.199617,0.08844 0.25,0.152344 0.0136,-0.05335 0.03612,-0.104707 0.04883,-0.158203 0.05925,-0.251513 -0.0068,-0.407495 -0.298828,-0.494141 C 10.310615,11.377872 9.9357087,11.279268 9.5546875,11.199219 8.9238678,11.067568 8.2891704,10.983087 7.640625,11.003906 Z"/>
 <path style="opacity:0.1;fill:#ffffff" d="m 11.679688,5.0039062 c -0.179047,-0.010709 -0.362946,-0.002 -0.552735,0.025391 C 9.8922174,5.2078932 8.9952445,6.2695352 9,7.4609375 8.9975023,7.522217 9.0225029,7.591617 9.0292969,7.65625 9.1636018,6.5939177 9.9992558,5.6924108 11.126953,5.5292969 c 0.759156,-0.1095799 1.432585,0.086794 2.011719,0.578125 0.477607,0.4058321 0.746632,0.9230753 0.835937,1.5292969 0.01759,-0.1494951 0.02987,-0.299892 0.0098,-0.4550782 C 13.902365,6.5551642 13.628474,6.0236158 13.138672,5.6074219 12.704321,5.2389239 12.216828,5.0360347 11.679688,5.0039062 Z"/>
 <path style="opacity:0.1;fill:#ffffff" d="m 15.359375,11.003906 c -0.648545,-0.02082 -1.283243,0.06366 -1.914063,0.195313 -0.381021,0.08005 -0.755926,0.178651 -1.126953,0.289062 -0.291932,0.08665 -0.358078,0.242628 -0.298828,0.494141 0.01271,0.0535 0.03522,0.10485 0.04883,0.158203 0.05039,-0.0639 0.12634,-0.115641 0.25,-0.152344 0.371027,-0.110411 0.745932,-0.209013 1.126953,-0.289062 0.63082,-0.131651 1.265518,-0.216132 1.914063,-0.195313 0.183223,0.007 0.366014,0.02414 0.546875,0.05469 0.524607,0.08707 0.970293,0.317518 1.333984,0.68164 0.43036,0.4298 0.667912,0.921518 0.730469,1.460938 0.06645,-0.741144 -0.171064,-1.40226 -0.730469,-1.960938 -0.363691,-0.364122 -0.809377,-0.59457 -1.333984,-0.68164 -0.180861,-0.03055 -0.363652,-0.04769 -0.546875,-0.05469 z"/>
</svg>
